src/assets/images/components/section/download/version-archive.svg

<svg fill="none" height="435" viewBox="0 0 454 435" width="454" xmlns="http://www.w3.org/2000/svg" xmlns:xlink="http://www.w3.org/1999/xlink"><filter id="a" color-interpolation-filters="sRGB" filterUnits="userSpaceOnUse" height="498" width="518" x="-32" y="-31.8395"><feFlood flood-opacity="0" result="BackgroundImageFix"/><feGaussianBlur in="BackgroundImageFix" stdDeviation="16"/><feComposite in2="SourceAlpha" operator="in" result="effect1_backgroundBlur_229_224"/><feBlend in="SourceGraphic" in2="effect1_backgroundBlur_229_224" mode="normal" result="shape"/></filter><filter id="b" color-interpolation-filters="sRGB" filterUnits="userSpaceOnUse" height="289" width="285" x="84" y="110"><feFlood flood-opacity="0" result="BackgroundImageFix"/><feColorMatrix in="SourceAlpha" result="hardAlpha" type="matrix" values="0 0 0 0 0 0 0 0 0 0 0 0 0 0 0 0 0 0 127 0"/><feOffset dy="11"/><feGaussianBlur stdDeviation="16"/><feComposite in2="hardAlpha" operator="out"/><feColorMatrix type="matrix" values="0 0 0 0 0.0941176 0 0 0 0 0.101961 0 0 0 0 0.105882 0 0 0 0.14 0"/><feBlend in2="BackgroundImageFix" mode="normal" result="effect1_dropShadow_229_224"/><feBlend in="SourceGraphic" in2="effect1_dropShadow_229_224" mode="normal" result="shape"/></filter><filter id="c" color-interpolation-filters="sRGB" filterUnits="userSpaceOnUse" height="107" width="103" x="175" y="177"><feFlood flood-opacity="0" result="BackgroundImageFix"/><feBlend in="SourceGraphic" in2="BackgroundImageFix" mode="normal" result="shape"/><feColorMatrix in="SourceAlpha" result="hardAlpha" type="matrix" values="0 0 0 0 0 0 0 0 0 0 0 0 0 0 0 0 0 0 127 0"/><feOffset dy="2"/><feGaussianBlur stdDeviation="2"/><feComposite in2="hardAlpha" k2="-1" k3="1" operator="arithmetic"/><feColorMatrix type="matrix" values="0 0 0 0 1 0 0 0 0 1 0 0 0 0 1 0 0 0 0.25 0"/><feBlend in2="shape" mode="normal" result="effect1_innerShadow_229_224"/><feColorMatrix in="SourceAlpha" result="hardAlpha" type="matrix" values="0 0 0 0 0 0 0 0 0 0 0 0 0 0 0 0 0 0 127 0"/><feOffset dy="-4"/><feGaussianBlur stdDeviation="1"/><feComposite in2="hardAlpha" k2="-1" k3="1" operator="arithmetic"/><feColorMatrix type="matrix" values="0 0 0 0 0 0 0 0 0 0 0 0 0 0 0 0 0 0 0.1 0"/><feBlend in2="effect1_innerShadow_229_224" mode="multiply" result="effect2_innerShadow_229_224"/></filter><filter id="d" color-interpolation-filters="sRGB" filterUnits="userSpaceOnUse" height="70.866" width="61.3652" x="195.812" y="198.039"><feFlood flood-opacity="0" result="BackgroundImageFix"/><feColorMatrix in="SourceAlpha" result="hardAlpha" type="matrix" values="0 0 0 0 0 0 0 0 0 0 0 0 0 0 0 0 0 0 127 0"/><feOffset dy="4"/><feGaussianBlur stdDeviation="2"/><feComposite in2="hardAlpha" operator="out"/><feColorMatrix type="matrix" values="0 0 0 0 0 0 0 0 0 0 0 0 0 0 0 0 0 0 0.15 0"/><feBlend in2="BackgroundImageFix" mode="normal" result="effect1_dropShadow_229_224"/><feBlend in="SourceGraphic" in2="effect1_dropShadow_229_224" mode="normal" result="shape"/></filter><linearGradient id="e"><stop offset="0" stop-color="#e5e5e5"/><stop offset=".505208" stop-color="#88a2ea" stop-opacity=".3"/><stop offset="1" stop-color="#88a2ea" stop-opacity=".3"/></linearGradient><linearGradient id="f" gradientUnits="userSpaceOnUse" x1="68.0101" x2="382.71" xlink:href="#e" y1="114.35" y2="320.089"/><linearGradient id="g" gradientUnits="userSpaceOnUse" x1="343.631" x2="107.079" xlink:href="#e" y1="140.47" y2="293.966"/><radialGradient id="h" cx="0" cy="0" gradientTransform="matrix(-93.91283981 -136.32266913 136.32266913 -93.91283981 278 301.388)" gradientUnits="userSpaceOnUse" r="1"><stop offset="0" stop-color="#1e2d86"/><stop offset="1" stop-color="#4b5cc5"/></radialGradient><clipPath id="i"><path d="m380 89h34v34h-34z"/></clipPath><g filter="url(#a)"><rect fill="#f6f7fb" fill-opacity=".9" height="434" rx="36.2264" width="454" y=".160522"/><rect height="432.868" rx="35.6604" stroke="#81899b" stroke-opacity=".2" stroke-width="1.13208" width="452.868" x=".566038" y=".72656"/></g><path d="m328.015 60.1973c86.721 56.6947 111.062 172.9567 54.367 259.6777s-172.956 111.062-259.677 54.367c-86.7214-56.695-111.0624-172.957-54.3675-259.678 56.6945-86.7206 172.9565-111.06155 259.6775-54.3667z" stroke="url(#f)" stroke-width=".783302"/><path d="m301.889 335.166c-65.14 42.269-152.213 23.728-194.482-41.413-42.2685-65.14-23.7275-152.213 41.413-194.4819 65.14-42.269 152.213-23.728 194.482 41.4129 42.269 65.14 23.728 152.213-41.413 194.482z" stroke="url(#g)" stroke-width=".783302"/><rect fill="#fff" height="250.453" rx="13.7864" width="355" x="51" y="106"/><rect height="249.152" rx="13.1361" stroke="#81899b" stroke-opacity=".2" stroke-width="1.3006" width="353.699" x="51.6503" y="106.65"/><g filter="url(#b)"><path d="m116 147c0-8.837 7.163-16 16-16h189c8.837 0 16 7.163 16 16v209h-221z" fill="#fff"/><path d="m132 131.566h189c8.524 0 15.434 6.91 15.434 15.434v208.434h-219.868v-208.434c0-8.524 6.91-15.434 15.434-15.434z" stroke="#81899b" stroke-opacity=".1" stroke-width="1.13208"/></g><g filter="url(#c)"><rect fill="url(#h)" height="103" rx="20" width="103" x="175" y="179"/></g><g filter="url(#d)"><path clip-rule="evenodd" d="m205.157 212.772 26.284-10.945c.403-.167.849-.126 1.171.04.325.167.325.329.325.339v7.974c-.001.047-.002.094-.002.142v13.19c-.04.692-.539 1.512-1.657 1.974l-.005.002-11.221 4.671v-.002l-8.04 3.349-5.546 2.309.011.025c-1.01.526-1.828 1.263-2.397 2.136-.389-.974-.587-1.991-.587-3.01v-20.129c0-.71.492-1.581 1.66-2.063zm31.461-10.566v4.254c1.179-.161 2.496.099 3.565.985l.002.002 6.809 5.669 1.411 1.175c3.003 2.5 4.773 5.976 4.773 9.683v20.134c0 2.476-1.666 4.526-3.932 5.464l-.003.001-26.28 10.943-.002.001c-1.455.604-3.031.469-4.266-.166-1.231-.633-2.323-1.896-2.323-3.612v-4.259c-1.18.162-2.498-.098-3.567-.985l-7.518-6.259c-.041-.034-.082-.069-.123-.105l-.579-.482c-3.002-2.5-4.773-5.976-4.773-9.683v-20.129c0-2.477 1.666-4.526 3.933-5.464l.002-.001 26.283-10.944c1.455-.604 3.031-.469 4.265.166 1.231.633 2.323 1.896 2.323 3.612zm9.893 20.893.013.031-24.807 10.327-.004.002c-1.168.482-1.66 1.354-1.66 2.063v21.217c0 .01 0 .172.326.339.322.166.767.207 1.171.04l26.283-10.945.005-.002c1.167-.482 1.659-1.353 1.659-2.063v-20.134c0-1.02-.198-2.038-.588-3.013-.568.874-1.387 1.612-2.398 2.138zm-9.893-12.77v12.932l7.921-3.299c.995-.414 1.44-1.092 1.55-1.653.105-.539-.049-1.198-.744-1.777l-7.512-6.254-.001-.001c-.209-.173-.569-.245-.927-.122-.165.057-.253.133-.284.17zm-28.268 32.668.001-.002-.791-.658c-.625-.562-.762-1.189-.661-1.706.109-.561.555-1.239 1.55-1.653l4.995-2.081 2.928-1.219v12.93l-.006.007c-.031.037-.118.113-.284.17-.357.123-.718.051-.927-.122l-.001-.001z" fill="#fff" fill-rule="evenodd"/></g><g fill="#4d5982" opacity=".2"><circle cx="66.1754" cy="121.174" r="3.03474"/><circle cx="76.5797" cy="121.174" r="3.03474"/><circle cx="86.9859" cy="121.174" r="3.03474"/></g><circle cx="396.944" cy="105.944" fill="#eb94c6" r="30.9436"/><g clip-path="url(#i)" fill="#f7f7f7"><path d="m397 89c-3.362 0-6.649.997-9.445 2.865-2.795 1.868-4.974 4.523-6.261 7.6294-1.287 3.1066-1.623 6.5246-.967 9.8226.656 3.297 2.275 6.326 4.652 8.704 2.378 2.377 5.407 3.996 8.704 4.652 3.298.656 6.716.32 9.823-.967 3.106-1.287 5.761-3.466 7.629-6.261 1.868-2.796 2.865-6.083 2.865-9.445-.013-4.505-1.809-8.8207-4.994-12.006-3.185-3.1852-7.501-4.9805-12.006-4.994zm0 29.75c-2.522 0-4.987-.748-7.084-2.149-2.096-1.401-3.73-3.392-4.695-5.722s-1.218-4.893-.726-7.366c.492-2.474 1.706-4.7455 3.489-6.5286 1.784-1.7831 4.055-2.9975 6.529-3.4894 2.473-.492 5.036-.2395 7.366.7255 2.33.9651 4.321 2.5993 5.722 4.696 1.401 2.0965 2.149 4.5615 2.149 7.0835-.01 3.378-1.357 6.616-3.746 9.004-2.388 2.389-5.626 3.736-9.004 3.746z"/><path d="m404.438 103.875h-5.313v-5.3125c0-.5636-.224-1.1041-.622-1.5026-.399-.3985-.939-.6224-1.503-.6224s-1.104.2239-1.503.6224c-.398.3985-.622.939-.622 1.5026v7.4375c0 .564.224 1.104.622 1.503.399.398.939.622 1.503.622h7.438c.563 0 1.104-.224 1.502-.622.399-.399.622-.939.622-1.503s-.223-1.104-.622-1.503c-.398-.398-.939-.622-1.502-.622z"/></g></svg>

<svg width="454" height="435" viewBox="0 0 454 435" fill="none" xmlns="http://www.w3.org/2000/svg">
<g filter="url(#filter0_b_229_224)">
<rect y="0.160522" width="454" height="434" rx="36.2264" fill="#F6F7FB" fill-opacity="0.9"/>
<rect x="0.566038" y="0.72656" width="452.868" height="432.868" rx="35.6604" stroke="#81899B" stroke-opacity="0.2" stroke-width="1.13208"/>
</g>
<path d="M328.015 60.1973C414.736 116.892 439.077 233.154 382.382 319.875C325.687 406.596 209.426 430.937 122.705 374.242C35.9836 317.547 11.6426 201.285 68.3375 114.564C125.032 27.8434 241.294 3.50245 328.015 60.1973Z" stroke="url(#paint0_linear_229_224)" stroke-width="0.783302"/>
<path d="M301.889 335.166C236.749 377.435 149.676 358.894 107.407 293.753C65.1385 228.613 83.6795 141.54 148.82 99.2711C213.96 57.0021 301.033 75.5431 343.302 140.684C385.571 205.824 367.03 292.897 301.889 335.166Z" stroke="url(#paint1_linear_229_224)" stroke-width="0.783302"/>
<rect x="51" y="106" width="355" height="250.453" rx="13.7864" fill="white"/>
<rect x="51.6503" y="106.65" width="353.699" height="249.152" rx="13.1361" stroke="#81899B" stroke-opacity="0.2" stroke-width="1.3006"/>
<g filter="url(#filter1_d_229_224)">
<path d="M116 147C116 138.163 123.163 131 132 131H321C329.837 131 337 138.163 337 147V356H116V147Z" fill="white"/>
<path d="M132 131.566H321C329.524 131.566 336.434 138.476 336.434 147V355.434H116.566V147C116.566 138.476 123.476 131.566 132 131.566Z" stroke="#81899B" stroke-opacity="0.1" stroke-width="1.13208"/>
</g>
<g filter="url(#filter2_ii_229_224)">
<rect x="175" y="179" width="103" height="103" rx="20" fill="url(#paint2_radial_229_224)"/>
</g>
<g filter="url(#filter3_d_229_224)">
<path fill-rule="evenodd" clip-rule="evenodd" d="M205.157 212.772L231.441 201.827C231.844 201.66 232.29 201.701 232.612 201.867C232.937 202.034 232.937 202.196 232.937 202.206V210.18C232.936 210.227 232.935 210.274 232.935 210.322V223.512C232.895 224.204 232.396 225.024 231.278 225.486L231.273 225.488L220.052 230.159V230.157L212.012 233.506L206.466 235.815L206.477 235.84C205.467 236.366 204.649 237.103 204.08 237.976C203.691 237.002 203.493 235.985 203.493 234.966V214.837C203.493 214.127 203.985 213.256 205.153 212.774L205.157 212.772ZM236.618 202.206V206.46C237.797 206.299 239.114 206.559 240.183 207.445L240.185 207.447L246.994 213.116L246.994 213.116L248.405 214.291C251.408 216.791 253.178 220.267 253.178 223.974V244.108C253.178 246.584 251.512 248.634 249.246 249.572L249.243 249.573L222.963 260.516L222.961 260.517C221.506 261.121 219.93 260.986 218.695 260.351C217.464 259.718 216.372 258.455 216.372 256.739V252.48C215.192 252.642 213.874 252.382 212.805 251.495L205.287 245.236C205.246 245.202 205.205 245.167 205.164 245.131L204.585 244.649C201.583 242.149 199.812 238.673 199.812 234.966V214.837C199.812 212.36 201.478 210.311 203.745 209.373L203.747 209.372L230.03 198.428C231.485 197.824 233.061 197.959 234.295 198.594C235.526 199.227 236.618 200.49 236.618 202.206ZM246.511 223.099L246.524 223.13L221.717 233.457L221.713 233.459C220.545 233.941 220.053 234.813 220.053 235.522V256.739C220.053 256.749 220.053 256.911 220.379 257.078C220.701 257.244 221.146 257.285 221.55 257.118L221.55 257.118L247.833 246.173L247.838 246.171C249.005 245.689 249.497 244.818 249.497 244.108V223.974C249.497 222.954 249.299 221.936 248.909 220.961C248.341 221.835 247.522 222.573 246.511 223.099ZM236.618 210.329V223.261L244.539 219.962L244.539 219.962C245.534 219.548 245.979 218.87 246.089 218.309C246.194 217.77 246.04 217.111 245.345 216.532L237.833 210.278L237.832 210.277C237.623 210.104 237.263 210.032 236.905 210.155C236.74 210.212 236.652 210.288 236.621 210.325L236.618 210.329ZM208.35 242.997L208.351 242.995L207.56 242.337C206.935 241.775 206.798 241.148 206.899 240.631C207.008 240.07 207.454 239.392 208.449 238.978L213.444 236.897L216.372 235.678V248.608L216.366 248.615C216.335 248.652 216.248 248.728 216.082 248.785C215.725 248.908 215.364 248.836 215.155 248.663L215.154 248.662L208.35 242.997Z" fill="white"/>
</g>
<g opacity="0.2">
<circle cx="66.1754" cy="121.174" r="3.03474" fill="#4D5982"/>
<circle cx="76.5797" cy="121.174" r="3.03474" fill="#4D5982"/>
<circle cx="86.9859" cy="121.174" r="3.03474" fill="#4D5982"/>
</g>
<circle cx="396.944" cy="105.944" r="30.9436" fill="#EB94C6"/>
<g clip-path="url(#clip0_229_224)">
<path d="M397 89C393.638 89 390.351 89.997 387.555 91.865C384.76 93.733 382.581 96.388 381.294 99.4944C380.007 102.601 379.671 106.019 380.327 109.317C380.983 112.614 382.602 115.643 384.979 118.021C387.357 120.398 390.386 122.017 393.683 122.673C396.981 123.329 400.399 122.993 403.506 121.706C406.612 120.419 409.267 118.24 411.135 115.445C413.003 112.649 414 109.362 414 106C413.987 101.495 412.191 97.1793 409.006 93.994C405.821 90.8088 401.505 89.0135 397 89V89ZM397 118.75C394.478 118.75 392.013 118.002 389.916 116.601C387.82 115.2 386.186 113.209 385.221 110.879C384.256 108.549 384.003 105.986 384.495 103.513C384.987 101.039 386.201 98.7675 387.984 96.9844C389.768 95.2013 392.039 93.9869 394.513 93.495C396.986 93.003 399.549 93.2555 401.879 94.2205C404.209 95.1856 406.2 96.8198 407.601 98.9165C409.002 101.013 409.75 103.478 409.75 106C409.74 109.378 408.393 112.616 406.004 115.004C403.616 117.393 400.378 118.74 397 118.75V118.75Z" fill="#F7F7F7"/>
<path d="M404.438 103.875H399.125V98.5625C399.125 97.9989 398.901 97.4584 398.503 97.0599C398.104 96.6614 397.564 96.4375 397 96.4375C396.436 96.4375 395.896 96.6614 395.497 97.0599C395.099 97.4584 394.875 97.9989 394.875 98.5625V106C394.875 106.564 395.099 107.104 395.497 107.503C395.896 107.901 396.436 108.125 397 108.125H404.438C405.001 108.125 405.542 107.901 405.94 107.503C406.339 107.104 406.562 106.564 406.562 106C406.562 105.436 406.339 104.896 405.94 104.497C405.542 104.099 405.001 103.875 404.438 103.875Z" fill="#F7F7F7"/>
</g>
<defs>
<filter id="filter0_b_229_224" x="-32" y="-31.8395" width="518" height="498" filterUnits="userSpaceOnUse" color-interpolation-filters="sRGB">
<feFlood flood-opacity="0" result="BackgroundImageFix"/>
<feGaussianBlur in="BackgroundImageFix" stdDeviation="16"/>
<feComposite in2="SourceAlpha" operator="in" result="effect1_backgroundBlur_229_224"/>
<feBlend mode="normal" in="SourceGraphic" in2="effect1_backgroundBlur_229_224" result="shape"/>
</filter>
<filter id="filter1_d_229_224" x="84" y="110" width="285" height="289" filterUnits="userSpaceOnUse" color-interpolation-filters="sRGB">
<feFlood flood-opacity="0" result="BackgroundImageFix"/>
<feColorMatrix in="SourceAlpha" type="matrix" values="0 0 0 0 0 0 0 0 0 0 0 0 0 0 0 0 0 0 127 0" result="hardAlpha"/>
<feOffset dy="11"/>
<feGaussianBlur stdDeviation="16"/>
<feComposite in2="hardAlpha" operator="out"/>
<feColorMatrix type="matrix" values="0 0 0 0 0.0941176 0 0 0 0 0.101961 0 0 0 0 0.105882 0 0 0 0.14 0"/>
<feBlend mode="normal" in2="BackgroundImageFix" result="effect1_dropShadow_229_224"/>
<feBlend mode="normal" in="SourceGraphic" in2="effect1_dropShadow_229_224" result="shape"/>
</filter>
<filter id="filter2_ii_229_224" x="175" y="177" width="103" height="107" filterUnits="userSpaceOnUse" color-interpolation-filters="sRGB">
<feFlood flood-opacity="0" result="BackgroundImageFix"/>
<feBlend mode="normal" in="SourceGraphic" in2="BackgroundImageFix" result="shape"/>
<feColorMatrix in="SourceAlpha" type="matrix" values="0 0 0 0 0 0 0 0 0 0 0 0 0 0 0 0 0 0 127 0" result="hardAlpha"/>
<feOffset dy="2"/>
<feGaussianBlur stdDeviation="2"/>
<feComposite in2="hardAlpha" operator="arithmetic" k2="-1" k3="1"/>
<feColorMatrix type="matrix" values="0 0 0 0 1 0 0 0 0 1 0 0 0 0 1 0 0 0 0.25 0"/>
<feBlend mode="normal" in2="shape" result="effect1_innerShadow_229_224"/>
<feColorMatrix in="SourceAlpha" type="matrix" values="0 0 0 0 0 0 0 0 0 0 0 0 0 0 0 0 0 0 127 0" result="hardAlpha"/>
<feOffset dy="-4"/>
<feGaussianBlur stdDeviation="1"/>
<feComposite in2="hardAlpha" operator="arithmetic" k2="-1" k3="1"/>
<feColorMatrix type="matrix" values="0 0 0 0 0 0 0 0 0 0 0 0 0 0 0 0 0 0 0.1 0"/>
<feBlend mode="multiply" in2="effect1_innerShadow_229_224" result="effect2_innerShadow_229_224"/>
</filter>
<filter id="filter3_d_229_224" x="195.812" y="198.039" width="61.3652" height="70.866" filterUnits="userSpaceOnUse" color-interpolation-filters="sRGB">
<feFlood flood-opacity="0" result="BackgroundImageFix"/>
<feColorMatrix in="SourceAlpha" type="matrix" values="0 0 0 0 0 0 0 0 0 0 0 0 0 0 0 0 0 0 127 0" result="hardAlpha"/>
<feOffset dy="4"/>
<feGaussianBlur stdDeviation="2"/>
<feComposite in2="hardAlpha" operator="out"/>
<feColorMatrix type="matrix" values="0 0 0 0 0 0 0 0 0 0 0 0 0 0 0 0 0 0 0.15 0"/>
<feBlend mode="normal" in2="BackgroundImageFix" result="effect1_dropShadow_229_224"/>
<feBlend mode="normal" in="SourceGraphic" in2="effect1_dropShadow_229_224" result="shape"/>
</filter>
<linearGradient id="paint0_linear_229_224" x1="68.0101" y1="114.35" x2="382.71" y2="320.089" gradientUnits="userSpaceOnUse">
<stop stop-color="#E5E5E5"/>
<stop offset="0.505208" stop-color="#88A2EA" stop-opacity="0.3"/>
<stop offset="1" stop-color="#88A2EA" stop-opacity="0.3"/>
</linearGradient>
<linearGradient id="paint1_linear_229_224" x1="343.631" y1="140.47" x2="107.079" y2="293.966" gradientUnits="userSpaceOnUse">
<stop stop-color="#E5E5E5"/>
<stop offset="0.505208" stop-color="#88A2EA" stop-opacity="0.3"/>
<stop offset="1" stop-color="#88A2EA" stop-opacity="0.3"/>
</linearGradient>
<radialGradient id="paint2_radial_229_224" cx="0" cy="0" r="1" gradientUnits="userSpaceOnUse" gradientTransform="translate(278 301.388) rotate(-124.563) scale(165.54)">
<stop stop-color="#1E2D86"/>
<stop offset="1" stop-color="#4B5CC5"/>
</radialGradient>
<clipPath id="clip0_229_224">
<rect width="34" height="34" fill="white" transform="translate(380 89)"/>
</clipPath>
</defs>
</svg>
